X:1
T: The Jolly Jocker
C:
R:Jig
Q:180
K:D
M:6/8
L:1/16
D2d2d2 d2F2G2|A2B2G2 F2G2E2|D2d2d2 d2F2A2|G2B2A2 G2F2E2|D2d2d2 F2d2d2|E2d2d2 D2d2d2|f2d2B2 A2G2F2|E2B2A2 G2F2E2|
D2d2d2 d2F2G2|A2B2G2 F2G2E2|D2d2d2 d2F2A2|G2B2A2 G2F2E2|D2d2d2 F2d2d2|E2d2d2 D2d2d2|f2d2B2 A2G2F2|E2B2A2 G2F2E2|
F2E2F2 D2z2D2|D2F2A2 A2G2E2|F2E2F2 D6|f2d2B2 B2c2d2|F2E2F2 D2z2D2|D2F2A2 A2G2F2|G2B2G2 F2A2F2|E2B2A2 G2F2E2|
F2E2F2 D2z2D2|D2F2A2 A2G2E2|F2E2F2 D6|f2d2B2 B2c2d2|F2E2F2 D2z2D2|D2F2A2 A2G2F2|G2B2G2 F2A2F2|E2B2A2 G2F2E2||
